icons/unity-panel/22x22/panel/unity-battery-060-charging.svg

<svg version="1.1" viewBox="0 0 22 22" xmlns="http://www.w3.org/2000/svg">
 <path d="m12 3v1.0117c-0.77194 0.016396-1.3991 0.076294-1.9375 0.37305a1.88 1.88 0 0 0-0.83789 0.99805c-0.165 0.437-0.22461 0.96019-0.22461 1.6172v7h-0.0059v1c0 0.658 0.05961 1.1792 0.22461 1.6172 0.164 0.439 0.46189 0.78909 0.83789 0.99609 0.753 0.415 1.6736 0.37172 2.9316 0.38672h2.0117c1.258-0.015 2.1786 0.02828 2.9316-0.38672 0.376-0.207 0.67389-0.55709 0.83789-0.99609 0.16492-0.438 0.22461-0.95919 0.22461-1.6172h0.0059v-8c0-0.657-0.05961-1.1802-0.22461-1.6172a1.88 1.88 0 0 0-0.83793-0.99805c-0.53845-0.29675-1.1656-0.35665-1.9375-0.37305v-1.0117zm1 2h2c1.26 0.015 2.0871 0.059719 2.4531 0.26172 0.184 0.101 0.28872 0.21266 0.38672 0.47266 0.097 0.26 0.16016 0.67362 0.16016 1.2656v7h-0.0059v1c0 0.592-0.06316 1.0056-0.16016 1.2656-0.098 0.259-0.20077 0.37266-0.38476 0.47266-0.36492 0.202-1.196 0.24672-2.455 0.26172h-2c-1.259-0.015-2.0901-0.05972-2.4551-0.26172-0.184-0.1-0.28677-0.21366-0.38477-0.47266-0.097-0.26-0.16016-0.67362-0.16016-1.2656v-1h0.0059v-7c0-0.592 0.06316-1.0056 0.16016-1.2656 0.098-0.26 0.20272-0.37166 0.38672-0.47266 0.366-0.202 1.1931-0.24672 2.4531-0.26172zm-7 1-3 6h2v5l3-6h-2z" enable-background="new" fill="#fff"/>
 <path class="success" d="m11 10v5c0 0.554 0.446 1 1 1h4c0.554 0 1-0.446 1-1v-5z" fill="#15c931" stroke-width="5"/>
</svg>

<?xml version="1.0" encoding="UTF-8" standalone="no"?>
<svg
   viewBox="0 0 22 22"
   version="1.1"
   id="svg8"
   sodipodi:docname="unity-battery-060-charging.svg"
   inkscape:version="1.1.1 (3bf5ae0d25, 2021-09-20)"
   xmlns:inkscape="http://www.inkscape.org/namespaces/inkscape"
   xmlns:sodipodi="http://sodipodi.sourceforge.net/DTD/sodipodi-0.dtd"
   xmlns="http://www.w3.org/2000/svg"
   xmlns:svg="http://www.w3.org/2000/svg">
  <defs
     id="defs12" />
  <sodipodi:namedview
     id="namedview10"
     pagecolor="#ffffff"
     bordercolor="#666666"
     borderopacity="1.0"
     inkscape:pageshadow="2"
     inkscape:pageopacity="0.0"
     inkscape:pagecheckerboard="0"
     showgrid="false"
     inkscape:zoom="12.090909"
     inkscape:cx="11.041353"
     inkscape:cy="11.041353"
     inkscape:window-width="1298"
     inkscape:window-height="704"
     inkscape:window-x="68"
     inkscape:window-y="27"
     inkscape:window-maximized="1"
     inkscape:current-layer="svg8">
    <inkscape:grid
       type="xygrid"
       id="grid925" />
  </sodipodi:namedview>
  <path
     d="M 12,3 V 4.0117 C 11.22806,4.028096 10.6009,4.087994 10.0625,4.38475 A 1.88,1.88 0 0 0 9.2246098,5.3828 c -0.165,0.437 -0.22461,0.96019 -0.22461,1.6172 v 7 h -0.0059 v 1 c 0,0.658 0.05961,1.1792 0.22461,1.6172 0.164,0.439 0.46189,0.78909 0.8378902,0.99609 0.753,0.415 1.6736,0.37172 2.9316,0.38672 h 2.0117 c 1.258,-0.015 2.1786,0.02828 2.9316,-0.38672 0.376,-0.207 0.67389,-0.55709 0.83789,-0.99609 C 18.93431,16.1792 18.994,15.65801 18.994,15 h 0.0059 V 7 c 0,-0.657 -0.05961,-1.1802 -0.22461,-1.6172 A 1.88,1.88 0 0 0 17.937359,4.38475 C 17.398909,4.088 16.771759,4.0281 15.999859,4.0117 V 3 Z m 1,2 h 2 c 1.26,0.015 2.0871,0.059719 2.4531,0.26172 0.184,0.101 0.28872,0.21266 0.38672,0.47266 0.097,0.26 0.16016,0.67362 0.16016,1.2656 v 7 h -0.0059 v 1 c 0,0.592 -0.06316,1.0056 -0.16016,1.2656 -0.098,0.259 -0.20077,0.37266 -0.38476,0.47266 -0.36492,0.202 -1.196,0.24672 -2.455,0.26172 h -2 c -1.259,-0.015 -2.0901,-0.05972 -2.4551,-0.26172 -0.184,-0.1 -0.28677,-0.21366 -0.38477,-0.47266 -0.097,-0.26 -0.1601602,-0.67362 -0.1601602,-1.2656 v -1 h 0.0059 v -7 c 0,-0.592 0.06316,-1.0056 0.16016,-1.2656 0.098,-0.26 0.20272,-0.37166 0.38672,-0.47266 C 10.91291,5.05972 11.74001,5.015 13.00001,5 Z M 6,6 3,12 h 2 v 5 L 7.9999998,11 H 6 Z"
     enable-background="new"
     fill="#ffffff"
     id="path2" />
  <path
     class="success"
     d="m 11,10 v 5 c 0,0.554 0.446,1 1,1 h 4 c 0.554,0 1,-0.446 1,-1 v -5 z"
     fill="#15c931"
     stroke-width="5"
     id="path4" />
</svg>
